release/img/snils_icon.svg

<svg width="58" height="58" viewBox="0 0 58 58" fill="none" xmlns="http://www.w3.org/2000/svg">
<path d="M40.6434 55.0317C39.1234 54.1534 37.5696 53.3765 36.1171 52.4307C33.1784 50.4716 30.7464 48.0057 29.0913 44.8643C27.9766 42.7363 27.4023 40.4731 27.4023 38.0749C27.4023 35.1699 27.4023 32.265 27.4023 29.3938C27.4023 28.144 27.9766 27.4009 29.1251 26.9955C32.8407 25.7457 36.5563 24.4621 40.2719 23.2123C40.9137 23.0097 41.5217 22.9759 42.1297 23.2123C45.8791 24.4959 49.6286 25.7795 53.378 27.0293C54.2225 27.2995 54.6953 27.9075 55.0331 28.6844V38.7167C55.0331 38.8856 54.9656 39.0882 54.9318 39.2571C54.9318 39.426 54.9318 39.5949 54.9318 39.7638C54.7629 41.5203 54.2224 43.1754 53.4455 44.763C51.9255 47.7355 49.6623 50.0662 46.9938 52.0254C45.4062 53.2076 43.7174 54.2548 41.8933 54.9641L41.5892 55.0654H40.6434V55.0317ZM40.4408 39.5611C39.5625 38.6829 38.7181 37.8046 37.8399 36.9602C37.2319 36.3522 36.5225 36.1495 35.7118 36.3522C34.0567 36.7913 33.5162 38.7842 34.7322 40.034C36.1171 41.4527 37.5359 42.8376 38.9208 44.2563C40.1368 45.4724 41.5555 45.371 42.6027 43.9861C43.616 42.635 44.5955 41.3176 45.6089 39.9665C46.7574 38.4464 47.9059 36.9602 49.0205 35.4064C50.0339 34.0215 49.3246 32.2312 47.6694 31.8934C46.7912 31.7245 46.048 32.0623 45.5076 32.8054C43.8186 35.0348 42.1635 37.2642 40.4408 39.5611Z" fill="white"/>
<path d="M54.9297 39.1906C54.9297 39.0217 54.9972 38.819 55.031 38.6501V39.1568C55.031 39.1568 54.9635 39.1568 54.9297 39.1568V39.1906Z" fill="#F9AF76"/>
<path d="M54.9297 39.1895C54.9297 39.1895 54.9972 39.1895 55.031 39.1895V39.6961C55.031 39.6961 54.9635 39.6961 54.9297 39.6961V39.1895Z" fill="#F9AF76"/>
<path d="M41.8939 54.9308C41.8939 54.9308 41.8939 54.9646 41.8939 54.9983C41.8939 54.9983 41.8939 54.9983 41.8939 55.0321H41.5898C41.5898 55.0321 41.7926 54.9646 41.8939 54.9308Z" fill="#F9AF76"/>
<path d="M25.2059 24.26C23.8885 25.476 23.1791 26.9961 23.044 28.7188C22.4698 28.6512 21.9293 28.5499 21.3551 28.5499C17.9097 28.5499 14.4643 28.5499 11.0189 28.5499C9.80287 28.5499 8.95844 29.2255 8.72199 30.3401C8.45176 31.4886 9.32996 32.7046 10.4784 32.8735C10.7487 32.9073 10.9851 32.9073 11.2554 32.9073C14.667 32.9073 18.0786 32.9073 21.4902 32.9073C21.9294 32.9073 22.3684 32.806 22.8076 32.7384C22.8751 32.7384 22.9427 32.7384 23.0102 32.7384C23.0102 34.4273 23.0102 36.0825 23.0102 37.7714C22.9764 41.4533 23.9561 44.8311 25.8477 47.9725C25.9153 48.0738 25.9828 48.1752 26.0166 48.2765C26.0166 48.2765 26.0165 48.2765 25.9827 48.3778H25.5099C19.7338 48.3778 13.9576 48.3778 8.18152 48.3778C4.66856 48.3778 2 45.7093 2 42.1964C2 30.8468 2 19.4972 2 8.14768C2 4.6685 4.66852 2 8.14771 2C16.5923 2 25.037 2 33.5154 2C36.7919 2 39.528 4.63471 39.5618 7.87745C39.5955 11.458 39.5618 15.0047 39.5618 18.5852C39.5618 18.619 39.5618 18.6866 39.5618 18.7541C37.3324 19.531 35.103 20.2741 32.8736 21.0173C32.6033 20.7133 32.4006 20.3417 32.0966 20.139C31.6913 19.9026 31.2184 19.6661 30.7793 19.6661C24.125 19.6661 17.5044 19.6661 10.85 19.6661C9.6678 19.6661 8.68818 20.6795 8.68818 21.8617C8.68818 23.044 9.6678 24.0236 10.85 24.0573C15.4777 24.0573 20.1391 24.0573 24.7668 24.0573C24.9357 24.0573 25.0707 24.0573 25.2396 24.0573C25.2396 24.1249 25.2396 24.1587 25.2396 24.2262L25.2059 24.26ZM15.3087 10.8837C13.7887 10.8837 12.2687 10.85 10.7487 10.8837C9.53269 10.9175 8.62059 11.9309 8.65436 13.0793C8.65436 14.2278 9.60018 15.2412 10.7824 15.2749C13.7887 15.3087 16.795 15.3087 19.7675 15.2749C21.22 15.2749 22.1996 13.8225 21.7942 12.4375C21.524 11.4918 20.6795 10.8837 19.531 10.8837C18.1123 10.8837 16.6937 10.8837 15.275 10.8837H15.3087Z" fill="white"/>
<path d="M25.207 24.2603C25.207 24.2603 25.207 24.159 25.207 24.0914C25.2408 24.0914 25.2745 24.0914 25.3421 24.0914C25.3083 24.1252 25.2745 24.1928 25.2407 24.2265L25.207 24.2603Z" fill="#F9AF76"/>
</svg>

<svg xmlns="http://www.w3.org/2000/svg" width="58" height="58" fill="none" viewBox="0 0 58 58">
  <path fill="#fff" d="M40.643 55.032c-1.52-.879-3.073-1.655-4.526-2.601-2.939-1.96-5.37-4.425-7.026-7.567-1.114-2.128-1.689-4.39-1.689-6.79v-8.68c0-1.25.575-1.993 1.723-2.398 3.716-1.25 7.431-2.534 11.147-3.784.642-.202 1.25-.236 1.858 0a1475.41 1475.41 0 0 0 11.248 3.817c.844.27 1.317.878 1.655 1.655v10.033c0 .169-.067.371-.101.54v.507c-.17 1.756-.71 3.411-1.486 4.999-1.52 2.973-3.784 5.303-6.452 7.262-1.588 1.183-3.277 2.23-5.1 2.94l-.305.1h-.946v-.033Zm-.202-15.47c-.879-.88-1.723-1.757-2.601-2.602-.608-.608-1.318-.81-2.128-.608-1.655.44-2.196 2.432-.98 3.682 1.385 1.419 2.804 2.804 4.189 4.222 1.216 1.216 2.635 1.115 3.682-.27 1.013-1.351 1.992-2.668 3.006-4.02 1.148-1.52 2.297-3.006 3.411-4.56 1.014-1.384.305-3.175-1.35-3.513-.879-.169-1.622.17-2.162.912-1.69 2.23-3.345 4.46-5.067 6.756Z"/>
  <path fill="#F9AF76" d="M54.93 39.19c0-.168.067-.371.101-.54v.507h-.101v.034Z"/>
  <path fill="#F9AF76" d="M54.93 39.19h.101v.506h-.101v-.506ZM41.894 54.93v.103h-.304l.304-.101Z"/>
  <path fill="#fff" d="M25.206 24.26c-1.317 1.216-2.027 2.736-2.162 4.459-.574-.068-1.115-.17-1.689-.17H11.02c-1.216 0-2.06.677-2.297 1.791-.27 1.149.608 2.365 1.756 2.534.27.033.507.033.777.033H21.49c.44 0 .878-.101 1.318-.169h.202v5.033c-.034 3.682.946 7.06 2.838 10.201.067.102.135.203.169.304l-.034.102H8.182C4.669 48.378 2 45.709 2 42.196V8.148C2 4.668 4.669 2 8.148 2h25.367c3.277 0 6.013 2.635 6.047 5.877.034 3.581 0 7.128 0 10.708v.17c-2.23.776-4.459 1.52-6.688 2.262-.27-.304-.473-.675-.777-.878-.406-.236-.879-.473-1.318-.473H10.85c-1.182 0-2.162 1.014-2.162 2.196 0 1.182.98 2.162 2.162 2.195h14.39v.17l-.034.033Zm-9.897-13.376c-1.52 0-3.04-.034-4.56 0a2.147 2.147 0 0 0-2.095 2.195c0 1.149.946 2.162 2.128 2.196 3.007.034 6.013.034 8.985 0 1.453 0 2.433-1.453 2.027-2.838-.27-.945-1.114-1.553-2.263-1.553h-4.256.034Z"/>
  <path fill="#F9AF76" d="M25.207 24.26v-.169h.135c-.034.034-.067.102-.101.136l-.034.033Z"/>
</svg>
